resources/svg/git-pull-request-fill.svg

<svg fill="currentColor" viewBox="0 0 24 24" xmlns="http://www.w3.org/2000/svg"><path d="M15 5H17C18.1046 5 19 5.89543 19 7V15.1707C20.1652 15.5825 21 16.6938 21 18C21 19.6569 19.6569 21 18 21C16.3431 21 15 19.6569 15 18C15 16.6938 15.8348 15.5825 17 15.1707V7H15V10L10.5 6L15 2V5ZM5 8.82929C3.83481 8.41746 3 7.30622 3 6C3 4.34315 4.34315 3 6 3C7.65685 3 9 4.34315 9 6C9 7.30622 8.16519 8.41746 7 8.82929V15.1707C8.16519 15.5825 9 16.6938 9 18C9 19.6569 7.65685 21 6 21C4.34315 21 3 19.6569 3 18C3 16.6938 3.83481 15.5825 5 15.1707V8.82929Z"/></svg>

<svg xmlns="http://www.w3.org/2000/svg" viewBox="0 0 24 24" fill="currentColor">
    <g>
        <path fill="none" d="M0 0h24v24H0z"/>
        <path d="M15 5h2a2 2 0 0 1 2 2v8.17a3.001 3.001 0 1 1-2 0V7h-2v3l-4.5-4L15 2v3zM5 8.83a3.001 3.001 0 1 1 2 0v6.34a3.001 3.001 0 1 1-2 0V8.83z"/>
    </g>
</svg>
